svg/free/garage.svg

<svg version="1.1" xmlns="http://www.w3.org/2000/svg" width="24" height="24" viewBox="0 0 24 24">
<title>garage</title>
<path d="M21 11.974h-0.024l-1.895-4.263c-0.36-0.793-1.144-1.336-2.056-1.336h-10.050c-0.912 0.001-1.697 0.543-2.050 1.322l-0.006 0.014-1.895 4.263h-0.024c-0.828 0.001-1.499 0.672-1.5 1.5v5.25c0.001 0.828 0.672 1.499 1.5 1.5h0v1.901c0.001 0.621 0.504 1.124 1.125 1.125h2.625c0.621-0.001 1.124-0.504 1.125-1.125v-1.901h8.25v1.901c0.001 0.621 0.504 1.124 1.125 1.125h2.625c0.621-0.001 1.124-0.504 1.125-1.125v-1.901c0.828-0.001 1.499-0.672 1.5-1.5v-5.25c-0.001-0.828-0.672-1.499-1.5-1.5h-0zM6.289 8.32c0.12-0.265 0.381-0.445 0.685-0.445h10.050c0.304 0 0.566 0.181 0.683 0.441l0.002 0.005 1.624 3.654h-14.669zM6.375 21.75h-1.875v-1.526h1.875zM19.5 21.75h-1.875v-1.526h1.875zM21 18.724h-18v-5.25h18z"></path>
<path d="M4.5 15.375h3.75v1.5h-3.75v-1.5z"></path>
<path d="M15.75 15.375h3.75v1.5h-3.75v-1.5z"></path>
<path d="M12 0.692l-11.25 4.517v1.616l11.25-4.517 11.25 4.517v-1.616l-11.25-4.517z"></path>
</svg>

<svg xmlns="http://www.w3.org/2000/svg" width="24" height="24" viewBox="0 0 24 24"><path d="M21 11.974h-.024l-1.895-4.263a2.256 2.256 0 00-2.056-1.336H6.975a2.252 2.252 0 00-2.05 1.322l-.006.014-1.895 4.263H3a1.502 1.502 0 00-1.5 1.5v5.25a1.502 1.502 0 001.5 1.5v1.901a1.127 1.127 0 001.125 1.125H6.75a1.127 1.127 0 001.125-1.125v-1.901h8.25v1.901a1.127 1.127 0 001.125 1.125h2.625A1.127 1.127 0 0021 22.125v-1.901a1.502 1.502 0 001.5-1.5v-5.25a1.502 1.502 0 00-1.5-1.5zM6.289 8.32a.75.75 0 01.685-.445h10.05c.304 0 .566.181.683.441l.002.005 1.624 3.654H4.664zm.086 13.43H4.5v-1.526h1.875zm13.125 0h-1.875v-1.526H19.5zm1.5-3.026H3v-5.25h18z"/><path d="M4.5 15.375h3.75v1.5H4.5v-1.5zM15.75 15.375h3.75v1.5h-3.75v-1.5zM12 .692L.75 5.209v1.616L12 2.308l11.25 4.517V5.209L12 .692z"/></svg>
